!!!COM: Palestrina, Giovanni Perluigi da
!!!OPR: Missa Petra sancta
!!!OMD: Credo
!!!OTL: Et in Spiritum
**kern	**kern	**kern	**kern	**kern
*Ibass	*Itenor	*Itenor	*Icalto	*Icant
!Bassus	!Tenor 2	!Tenor 1	!Altus	!Cantus
*clefF4	*clefGv2	*clefGv2	*clefG2	*clefG2
*k[]	*k[]	*k[]	*k[]	*k[]
*A:aeo	*A:aeo	*A:aeo	*A:aeo	*A:aeo
*M4/2	*M4/2	*M4/2	*M4/2	*M4/2
=143	=143	=143	=143	=143
0r	1a	1A	1cc	1ee
.	1a	1A	1cc	1ee
=144	=144	=144	=144	=144
1E	2.g#	2.e	2.b	2.ee
.	4g#	4e	4b	4ee
1E	1g#	1e	1b	1ee
=145	=145	=145	=145	=145
2.A	2r	2c	1.cc	1ee
.	1a	2.A	.	.
4A	.	.	.	.
1A	.	.	.	2ff
.	.	4B	.	.
.	2a	4c	2cc	[2ee
.	.	4d	.	.
=146	=146	=146	=146	=146
0r	2g	2e	2b	2ee]
.	2f	1a	2a	2dd
.	1e	.	1b	[1ee
.	.	2g#	.	.
=147	=147	=147	=147	=147
1.A	1.c	2a	1e	1ee]
.	.	4A	.	.
.	.	4B	.	.
.	.	4c	2f	1r
.	.	4d	.	.
2A	2c	4e	[2e	.
.	.	4f	.	.
=148	=148	=148	=148	=148
2G	2B	2g	2e]	1r
2F	2A	2a	2d	.
1E	1B	2a	1e	1b
.	.	2g#	.	.
=149	=149	=149	=149	=149
1A	2r	1a	2r	1cc
.	2e	.	1a	.
1r	1f	2r	.	1cc
.	.	2f	2a	.
=150	=150	=150	=150	=150
0r	2B-	2f	4b-	1dd
.	.	.	4a	.
.	2B-	2.g	4g	.
.	.	.	4f	.
.	[1c	.	4e	[1cc
.	.	4f	4d	.
.	.	4e	2c	.
.	.	4d	.	.
=151	=151	=151	=151	=151
0r	0c]	2e	2g	0cc]
.	.	1f	2a	.
.	.	.	1g	.
.	.	2e	.	.
=152	=152	=152	=152	=152
2r	2F	1f	2r	2a
1F	1f	.	1a	1cc
.	.	1r	.	.
2F	2f	.	2a	2cc
=153	=153	=153	=153	=153
1B-	1d	1r	2f	1dd
.	.	.	2g	.
[1A	2e	2r	[1a	4cc
.	.	.	.	4dd
.	[2e	[2c	.	4ee
.	.	.	.	4ff
=154	=154	=154	=154	=154
1A]	4e]	4c]	1a]	1ee
.	4e	4c	.	.
.	2e	2c	.	.
1r	2f	2d	1r	2r
.	2g	2e	.	[2cc
=155	=155	=155	=155	=155
0r	2.a	2.f	2r	4cc]
.	.	.	.	4cc
.	.	.	2.f	2cc
.	4g	4g	.	.
.	2f	2a	.	2dd
.	.	.	4f	.
.	2e	2g	2g	2ee
=156	=156	=156	=156	=156
1r	1d	1f	2a	1ff
.	.	.	2b	.
2r	1c	2g	2.cc	2ee
[2F	.	2a	.	[2cc
.	.	.	4b	.
=157	=157	=157	=157	=157
4F]	0r	2f	1a	4cc]
4F	.	.	.	4cc
2F	.	2f	.	2cc
2G	.	2d	2g	2b-
2A	.	[2f	4f	2a
.	.	.	4e	.
=158	=158	=158	=158	=158
1B-	1r	2f]	1d	2f
.	.	4e	.	2g
.	.	4d	.	.
2A	2r	2c#	2e	[1a
[2d	[2f	2d	2d	.
=159	=159	=159	=159	=159
2d]	2f]	1A	2r	1a]
2c	2e	.	2.a	.
1d	1f	1r	.	1r
.	.	.	4a	.
.	.	.	2a	.
=160	=160	=160	=160	=160
2B-	2d	2r	2g	0r
2A	2c	1f	2f	.
2G	2g	.	2b-	.
2G	2g	2e	2b-	.
=161	=161	=161	=161	=161
2F	2c	1f	0a	0r
2.D	2d	.	.	.
.	2f	2d	.	.
4E	.	.	.	.
4F	2f	2d	.	.
4G	.	.	.	.
=162	=162	=162	=162	=162
1A	2e	2c	2r	0ee
.	1a	2A	1cc	.
1E	.	1e	.	.
.	2g#	.	2b	.
=163	=163	=163	=163	=163
1A	2.a	2r	2.cc	1ee
.	.	1A	.	.
.	4g	.	4b	.
2D	2f	.	2a	2dd
2A	2e	2A	2a	2cc
=164	=164	=164	=164	=164
0D	0d	2.a	2.f	0ff
.	.	4g	4g	.
.	.	2f	1a	.
.	.	2d	.	.
=165	=165	=165	=165	=165
1A	1c#	1e	1a	1ee
2r	2r	2A	2r	2r
2A	2e	2c#	2a	2ee
=166	=166	=166	=166	=166
2A	2e	2c#	2a	2ee
2A	2e	2c#	2a	2ee
2D	2a	2d	2f	2dd
2A	2a	2e	2e	2cc
=167	=167	=167	=167	=167
1D	4f	1a	1d	1ff
.	4e	.	.	.
.	1d	.	.	.
[1A	.	[1a	1e	[1ee
.	4c#	.	.	.
.	4B	.	.	.
=168	=168	=168	=168	=168
1A]	1c#	1a]	2.e	1ee]
.	.	.	4e	.
1A	1c#	2r	2e	2.a
.	.	[2A	2e	.
.	.	.	.	4a
=169	=169	=169	=169	=169
1D	2.d	2A]	1f#	2a
.	.	2d	.	2a
.	4d	.	.	.
1G	2d	2B	2g	1b
.	2d	2G	4g	.
.	.	.	4f	.
=170	=170	=170	=170	=170
1C	1e	4g	4e	2.cc
.	.	4f	4d	.
.	.	4e	2.c	.
.	.	4d	.	4b
1F	2.f	2c	.	2a
.	.	.	4A	.
.	.	2A	2a	2cc
.	4e	.	.	.
=171	=171	=171	=171	=171
2G	2d	2B	4g	2b
.	.	.	4f	.
2A	2c	2.e	4e	1a
.	.	.	4d	.
1E	1B	.	1e	.
.	.	4d	.	.
.	.	2B	.	2g#
=172	=172	=172	=172	=172
2A	2A	1c#	1e	0a
2A	2e	.	.	.
2d	2f	1r	2r	.
2c#	2e	.	2a	.
=173	=173	=173	=173	=173
1d	1f	0r	2b-	0r
.	.	.	2a	.
1G	2d	.	1b-	.
.	[2g	.	.	.
=174	=174	=174	=174	=174
1d	4g]	0r	2a	0r
.	4f	.	.	.
.	2f	.	2a	.
2c	2e	.	2a	.
2B-	2d	.	2g	.
=175	=175	=175	=175	=175
1A	4c	1e	2a	1r
.	4B	.	.	.
.	4A	.	2cc	.
.	4B	.	.	.
1r	4c	2a	2cc	1ee
.	4d	.	.	.
.	2e	2g#	2b	.
=176	=176	=176	=176	=176
0r	1A	2.a	2.cc	2ff
.	.	.	.	2ee
.	.	4a	4cc	.
.	1r	1d	4a	2.ff
.	.	.	4g	.
.	.	.	4a	.
.	.	.	4b	4ff
=177	=177	=177	=177	=177
0r	1r	1a	2cc	2ee
.	.	.	2cc	2ee
.	2r	2g	2b	2ee
.	2a	2f	2a	2dd
=178	=178	=178	=178	=178
1r	2a	1e	1b	0ee
.	2g#	.	.	.
1A	2a	1c	1a	.
.	2e	.	.	.
=179	=179	=179	=179	=179
2A	2e	2c	0r	0r
2A	2f	2c	.	.
2.G	2e	2.B	.	.
.	2d	.	.	.
4F	.	4A	.	.
=180	=180	=180	=180	=180
2E	2c	2G	1r	1r
2D	2.d	2F	.	.
2E	.	2G	2r	2r
.	4c	.	.	.
2F	[2c	2A	2c	2ff
=181	=181	=181	=181	=181
1D	2c]	1F	2d	2ff
.	2B	.	2d	2ff
1C	2c	1G	2e	2.ee
.	2e	.	2g	.
.	.	.	.	4dd
=182	=182	=182	=182	=182
0r	2f	0r	2a	2cc
.	2g	.	2e	2b
.	2a	.	2A	2cc
.	2d	.	[2a	2dd
=183	=183	=183	=183	=183
1r	1e	0r	2a]	1b
.	.	.	2g#	.
2r	2r	.	2a	2a
[2F	[2f	.	[2a	[2cc
=184	=184	=184	=184	=184
2F]	2f]	0r	2a]	2cc]
2F	2f	.	2a	2cc
2c	2.e	.	2.g	2cc
2G	.	.	.	2b
.	4d	.	4f	.
=185	=185	=185	=185	=185
2A	2c	0r	2e	2a
2B	2B	.	2d	2g
2c	2A	.	2e	2a
2F	[2c	.	2f	2a
=186	=186	=186	=186	=186
1G	2c]	1r	1d	1g
.	2B	.	.	.
1C	1c	2r	[1g	2e
.	.	[2c	.	[2ee
=187	=187	=187	=187	=187
0r	2r	2c]	1g]	2ee]
.	1g	2B	.	2dd
.	.	1c	2r	1ee
.	2e	.	[2cc	.
=188	=188	=188	=188	=188
2r	1g	1G	2cc]	[0dd
1G	.	.	2.b	.
.	[1d	1r	.	.
.	.	.	4g	.
2F#	.	.	2a	.
=189	=189	=189	=189	=189
1G	1d]	2r	1b	0dd]
.	.	1g	.	.
1D	2r	.	1a	.
.	[2d	2f#	.	.
=190	=190	=190	=190	=190
1.G	2d]	1g	1.b	0r
.	2d	.	.	.
.	2d	[1g	.	.
2G	2d	.	2b	.
=191	=191	=191	=191	=191
2G	2e	1g]	2b	1r
2G	2d	.	2b	.
2A	2c	1r	2cc	2r
2G	2d	.	2b	[2dd
=192	=192	=192	=192	=192
2F	4d	0r	2a	2dd]
.	4c	.	.	.
2G	4B	.	2g	2dd
.	4c	.	.	.
2D	4d	.	4f	2dd
.	4c	.	4g	.
2F	4B	.	[2a	2dd
.	4A	.	.	.
=193	=193	=193	=193	=193
1E	1B	2r	2a]	1ee
.	.	1e	2g#	.
1A	1A	.	[1a	2cc
.	.	2e	.	4a
.	.	.	.	4b
=194	=194	=194	=194	=194
0r	2.A	2e	1a]	4cc
.	.	.	.	4dd
.	.	2e	.	4ee
.	4A	.	.	4cc
.	2d	2f	[1a	2dd
.	2c#	2e	.	2ee
=195	=195	=195	=195	=195
1r	2d	2d	2a]	2ff
.	2e	2c#	2a	2.ee
2r	2f	2d	2.a	.
.	.	.	.	4dd
2F	2f	2A	.	[2dd
.	.	.	8g	.
.	.	.	8a	.
=196	=196	=196	=196	=196
2G	1e	0r	2b-	2dd]
2A	.	.	2a	2cc#
2B-	2.d	.	2r	1dd
[2B-	.	.	2f	.
.	4c	.	.	.
=197	=197	=197	=197	=197
2B-]	4d	2r	2g	0r
.	4e	.	.	.
2A	2f	2c	2a	.
2G	1g	2d	1b-	.
2G	.	2e	.	.
=198	=198	=198	=198	=198
2.F	2r	2f	1a	0r
.	2c	1f	.	.
4E	.	.	.	.
2D	2d	.	1a	.
2C#	2e	2e	.	.
=199	=199	=199	=199	=199
4D	1f	2d	4a	0r
4E	.	.	4g	.
4F	.	2d	4a	.
4G	.	.	4b	.
4A	2.e	2c	2cc	.
4B	.	.	.	.
2c	.	[2g	2cc	.
.	4e	.	.	.
=200	=200	=200	=200	=200
2G	2d	4g]	2b	0r
.	.	4f	.	.
2A	2c	4e	2.a	.
.	.	4d	.	.
1E	1B	2.e	.	.
.	.	.	8g#	.
.	.	.	8f#	.
.	.	.	2g#	.
.	.	4d	.	.
=201	=201	=201	=201	=201
1.F	2A	2.c	1a	2r
.	4A	.	.	2cc
.	4G	4B	.	.
.	4A	2A	1r	2dd
.	4B	.	.	.
2E	[2c	2G	.	2ee
=202	=202	=202	=202	=202
1D	4c]	1F	2r	1ff
.	4B	.	.	.
.	4B	.	2f	.
.	4A	.	.	.
1C	1c	2r	2g	1ee
.	.	2c	2a	.
=203	=203	=203	=203	=203
1r	0r	2d	2b-	2dd
.	.	2e	2g	1cc
1F	.	2.f	2a	.
.	.	.	2a	4b-
.	.	4e	.	4a
=204	=204	=204	=204	=204
2G	1r	2d	2g	2b-
2A	.	2c	2.f	1a
1B-	2r	1d	.	.
.	.	.	4e	.
.	2d	.	2d	2g
=205	=205	=205	=205	=205
1A	2e	0r	2c	2a
.	2e	.	2.cc	2cc
1G	1g	.	.	2dd
.	.	.	8b	.
.	.	.	8a	.
.	.	.	2b	2ee
=206	=206	=206	=206	=206
2.F	1a	2r	4cc	1ff
.	.	.	4b	.
.	.	2c	4a	.
4E	.	.	4g	.
2D	1a	2d	4f	2ff
.	.	.	4d	.
2C#	.	2e	2a	2ee
=207	=207	=207	=207	=207
4D	1r	1f	0a	2dd
4E	.	.	.	.
4F	.	.	.	2dd
4G	.	.	.	.
1A	2r	2.e	.	4cc
.	.	.	.	4b
.	2c	.	.	4a
.	.	4e	.	4g
=208	=208	=208	=208	=208
2r	2d	2d	0r	4f
.	.	.	.	4g
2C	2e	2c	.	1a
2D	2f	1B	.	.
2E	2e	.	.	2g#
=209	=209	=209	=209	=209
1F	2c	0A	2r	1a
.	1f	.	2c	.
2D	.	.	2d	1r
2C#	[2e	.	2e	.
=210	=210	=210	=210	=210
2.D	2e]	1A	2.f	1dd
.	1d	.	.	.
4D	.	.	4f	.
1A	.	2r	1e	2.ee
.	2c#	[2a	.	.
.	.	.	.	8dd
.	.	.	.	8ee
=211	=211	=211	=211	=211
0D	0d	4a]	4d	4ff
.	.	4g	4e	4ee
.	.	4f	4f	4dd
.	.	4e	4g	4cc#
.	.	1f	1a	1dd
=212	=212	=212	=212	=212
0A	0c#	0e	0a	0ee
==	==	==	==	==
*-	*-	*-	*-	*-
!!!CDT: 1525/^1526/-1594/2/2
!!!OCY: Italia
!!!AGN: Mass (Parody)
!!!AST: renaissance, vocal
!!!ASW: Madrigal 1561 (Palestrina)
!!!PWK: Masses, Book 10
!!!RNB: Cadence finals: D
!!!YOR: Le Opere Complete, v. 27, p. 52
!!!YOO: Rome, Italy: Fratelli Scalera
!!!END: 1992//
!!!EED: John Miller
!!!YEC: Copyright 2000, John Miller
!!!YEN: United States of America
!!!YEM: Rights to all derivative electronic formats reserved.
!!!YEM: Refer to licensing agreement for further details.
!!!YEM: This file must be accompanied by the licensing agreement.
!!!YEM: A copy of the licensing agreement may be found at http://www.music-cog.ohio-state.edu/HumdrumDatabases/Palestrina/license.txt
!!!EMD: converted to Humdrum by Bret Aarden
